X: 4025
T: LOCH LONG
R: Strathspey.
%R: strathspey
B: James Kerr "Merry Melodies" v.4 p.05 #25
Z: 2016 John Chambers <jc:trillian.mit.edu>
M: C
L: 1/16
K: A
[|\
Ee3 e3c B3c A4 | E3AF3A E3AF3A |\
Ee3 e3c B3c A3B | c3F AGF^E F6=E2 |\
Ee3 e3c B3c A4 | E3AF3A E3AF3A |
Ee3 e3c B3c A3B | c3A cBAG A4- A2c2 |]|\
ea3 a3g f3ec3d | e3Ac3A e3Ac3A |\
ea3 a3g f3ec3e |
d3B dcBA GB3 B2e2 |\
ea3 a3g f3ec3d | e3Ac3A e3Ac3A |\
d3ef3g a3ec3A | e3A cBAG A4- A2z2 |]

%%sep 1 1 500
%%sep 1 1 500

